X:101
%%vocalfont Baskerville10Pro 11
%%pagewidth 7in
%%staffscale 0.95
T:In sad and ashy weeds
M:6/8
L:1/8
K:C
%%score 1 2
V:1 clef-treble
V:2 clef-bass octave=-1
V:1
G|[EG]2G [FA]2!<(![DB]|[Ec]3[Ge]3|!<)!!>(![Ff]2A [Ec]2!>)![G,CE]|
w:In sad and ash-y weeds I sigh, I groan, I
V:2
z|[CG]6-|[CG]3[C_B]3|A3G2C,&C3-C2x|
V:1
[K:treble][F,B,D]2C C2G|[DG]2G [DA]2[D^GB]|[CAc]3[_Be]3|[Gf]2[FA] [Gc]2[G,CE]|[F,B,D]2C C2||
w:pine, I mourn; My oat-en yel-low reeds I all to jet and e-bon turn.
V:2
G,2[CE][CE]2z|B,3F2E|A3[G_B]3|c3-c2C,&F3E2x|E2[CE][CE]2||
V:1
c|G2G (A>B)c&C6|E2E (F>G)A&C6|D2E (F>G)A&B,3B,3|[CEG]3-[CEG]2[CFA]|
w:My wa-t'ry eyes,* Like win-ter's skies,* My fur-row'd cheeks* o'er-flow:* All
V:2
z|E3F>GA|C3D>EF|G3G,3|C3-C2F,|
V:1
[_B,DG]2FE2D|[ADF]2GA2[DF=B]|[CGc]2[CF][B,D]2C|C3-C2||
w:heav'n know why, Men mourn as I! And who can blame my woe?*
V:2
G,6|D3-D2D|E2[CG][G,F]2[CE]|[CE]3-[CE]2||

